svg/m/US.svg

<svg fill="none" height="15" viewBox="0 0 20 15" width="20" xmlns="http://www.w3.org/2000/svg" xmlns:xlink="http://www.w3.org/1999/xlink"><mask id="a" height="15" maskUnits="userSpaceOnUse" width="20" x="0" y="0"><path d="m0 0h20v15h-20z" fill="#fff"/></mask><g mask="url(#a)"><path clip-rule="evenodd" d="m0 0h20v15h-20z" fill="#e31d1c" fill-rule="evenodd"/><path clip-rule="evenodd" d="m0 1.25v1.25h20v-1.25zm0 2.5v1.25h20v-1.25zm0 3.75v-1.25h20v1.25zm0 1.25v1.25h20v-1.25zm0 3.75v-1.25h20v1.25zm0 2.5v-1.25h20v1.25z" fill="#f7fcff" fill-rule="evenodd"/><path d="m0 0h11.25v8.75h-11.25z" fill="#2e42a5"/><path clip-rule="evenodd" d="m1.3 2.71718.6624-.46141.51383.36992h-.29093l.58834.52037-.19872.72963h-.31123l-.30221-.67012-.25773.67012h-.768447l.588337.52037-.22364.82113.6624-.46142.51383.36992h-.29093l.58834.52037-.19872.72963h-.31123l-.30221-.67012-.25773.67012h-.768447l.588337.52037-.22364.82113.6624-.46142.64092.46142-.19926-.82113.51471-.52037h-.23741l.53104-.36992.51383.36992h-.29093l.58834.52037-.22364.82113.6624-.46142.64092.46142-.19926-.82113.51471-.52037h-.23741l.53104-.36992.51383.36992h-.29093l.58834.52037-.22364.82113.6624-.46142.64092.46142-.19926-.82113.51471-.52037h-.23741l.53104-.36992.51383.36992h-.29093l.58834.52037-.22364.82113.6624-.46142.6409.46142-.19924-.82113.51474-.52037h-.65511l-.30221-.67012-.25773.67012h-.37263l-.17706-.72963.51471-.52037h-.23741l.53104-.36992.6409.46142-.19924-.82113.51474-.52037h-.65511l-.30221-.67012-.25773.67012h-.37263l-.17706-.72963.51471-.52037h-.23741l.53104-.36992.6409.46141-.19924-.82112.51474-.52037h-.65511l-.30221-.670124-.25773.670124h-.76845l.58834.52037-.19872.72963h-.31123l-.30221-.67012-.25773.67012h-.37263l-.17706-.72963.51471-.52037h-.65508l-.30221-.670124-.25773.670124h-.76845l.58834.52037-.19872.72963h-.31123l-.30221-.67012-.25773.67012h-.37263l-.17706-.72963.51471-.52037h-.65508l-.30221-.670124-.25773.670124h-.76845l.58834.52037-.19872.72963h-.31123l-.30221-.67012-.25773.67012h-.37263l-.17706-.72963.51471-.52037h-.65508l-.30221-.670124-.25773.670124h-.768447l.588337.52037zm7.52492 2.40851.19872-.72963-.58834-.52037h.29093l-.51383-.36992-.53104.36992h.23741l-.51471.52037.17706.72963h.37263l.25773-.67012.30221.67012zm-1.34869 0-.51383-.36992-.53104.36992h.23741l-.51471.52037.17706.72963h.37263l.25773-.67012.30221.67012h.31123l.19872-.72963-.58834-.52037zm-2.20259.52037-.19872.72963h-.31123l-.30221-.67012-.25773.67012h-.37263l-.17706-.72963.51471-.52037h-.23741l.53104-.36992.51383.36992h-.29093zm.18011-.52037h-.37263l-.17706-.72963.51471-.52037h-.23741l.53104-.36992.51383.36992h-.29093l.58834.52037-.19872.72963h-.31123l-.30221-.67012zm-1.62883 0 .19872-.72963-.58834-.52037h.29093l-.51383-.36992-.53104.36992h.23741l-.51471.52037.17706.72963h.37263l.25773-.67012.30221.67012zm3.94872-1.97963-.19872.72963h-.31123l-.30221-.67012-.25773.67012h-.37263l-.17706-.72963.51471-.52037h-.23741l.53104-.36992.51383.36992h-.29093zm-2.79741-.52037-.51383-.36992-.53104.36992h.23741l-.51471.52037.17706.72963h.37263l.25773-.67012.30221.67012h.31123l.19872-.72963-.58834-.52037z" fill="#f7fcff" fill-rule="evenodd"/></g></svg>

<svg width="20" height="15" viewBox="0 0 20 15" fill="none" xmlns="http://www.w3.org/2000/svg">
<mask id="mask0" mask-type="alpha" maskUnits="userSpaceOnUse" x="0" y="0" width="20" height="15">
<rect width="20" height="15" fill="white"/>
</mask>
<g mask="url(#mask0)">
<path fill-rule="evenodd" clip-rule="evenodd" d="M0 0H20V15H0V0Z" fill="#E31D1C"/>
<path fill-rule="evenodd" clip-rule="evenodd" d="M0 1.25V2.5H20V1.25H0ZM0 3.75V5H20V3.75H0ZM0 7.5V6.25H20V7.5H0ZM0 8.75V10H20V8.75H0ZM0 12.5V11.25H20V12.5H0ZM0 15V13.75H20V15H0Z" fill="#F7FCFF"/>
<rect width="11.25" height="8.75" fill="#2E42A5"/>
<path fill-rule="evenodd" clip-rule="evenodd" d="M1.3 2.71718L1.9624 2.25577L2.47623 2.62569H2.1853L2.77364 3.14606L2.57492 3.87569H2.26369L1.96148 3.20557L1.70375 3.87569H0.935303L1.52364 4.39606L1.3 5.21719L1.9624 4.75577L2.47623 5.12569H2.1853L2.77364 5.64606L2.57492 6.37569H2.26369L1.96148 5.70557L1.70375 6.37569H0.935303L1.52364 6.89606L1.3 7.71719L1.9624 7.25577L2.60332 7.71719L2.40406 6.89606L2.91877 6.37569H2.68136L3.2124 6.00577L3.72623 6.37569H3.4353L4.02364 6.89606L3.8 7.71719L4.4624 7.25577L5.10332 7.71719L4.90406 6.89606L5.41877 6.37569H5.18136L5.7124 6.00577L6.22623 6.37569H5.9353L6.52364 6.89606L6.3 7.71719L6.9624 7.25577L7.60332 7.71719L7.40406 6.89606L7.91877 6.37569H7.68136L8.2124 6.00577L8.72623 6.37569H8.4353L9.02364 6.89606L8.8 7.71719L9.4624 7.25577L10.1033 7.71719L9.90406 6.89606L10.4188 6.37569H9.76369L9.46148 5.70557L9.20375 6.37569H8.83112L8.65406 5.64606L9.16877 5.12569H8.93136L9.4624 4.75577L10.1033 5.21719L9.90406 4.39606L10.4188 3.87569H9.76369L9.46148 3.20557L9.20375 3.87569H8.83112L8.65406 3.14606L9.16877 2.62569H8.93136L9.4624 2.25577L10.1033 2.71718L9.90406 1.89606L10.4188 1.37569H9.76369L9.46148 0.705566L9.20375 1.37569H8.4353L9.02364 1.89606L8.82492 2.62569H8.51369L8.21148 1.95557L7.95375 2.62569H7.58112L7.40406 1.89606L7.91877 1.37569H7.26369L6.96148 0.705566L6.70375 1.37569H5.9353L6.52364 1.89606L6.32492 2.62569H6.01369L5.71148 1.95557L5.45375 2.62569H5.08112L4.90406 1.89606L5.41877 1.37569H4.76369L4.46148 0.705566L4.20375 1.37569H3.4353L4.02364 1.89606L3.82492 2.62569H3.51369L3.21148 1.95557L2.95375 2.62569H2.58112L2.40406 1.89606L2.91877 1.37569H2.26369L1.96148 0.705566L1.70375 1.37569H0.935303L1.52364 1.89606L1.3 2.71718ZM8.82492 5.12569L9.02364 4.39606L8.4353 3.87569H8.72623L8.2124 3.50577L7.68136 3.87569H7.91877L7.40406 4.39606L7.58112 5.12569H7.95375L8.21148 4.45557L8.51369 5.12569H8.82492ZM7.47623 5.12569L6.9624 4.75577L6.43136 5.12569H6.66877L6.15406 5.64606L6.33112 6.37569H6.70375L6.96148 5.70557L7.26369 6.37569H7.57492L7.77364 5.64606L7.1853 5.12569H7.47623ZM5.27364 5.64606L5.07492 6.37569H4.76369L4.46148 5.70557L4.20375 6.37569H3.83112L3.65406 5.64606L4.16877 5.12569H3.93136L4.4624 4.75577L4.97623 5.12569H4.6853L5.27364 5.64606ZM5.45375 5.12569H5.08112L4.90406 4.39606L5.41877 3.87569H5.18136L5.7124 3.50577L6.22623 3.87569H5.9353L6.52364 4.39606L6.32492 5.12569H6.01369L5.71148 4.45557L5.45375 5.12569ZM3.82492 5.12569L4.02364 4.39606L3.4353 3.87569H3.72623L3.2124 3.50577L2.68136 3.87569H2.91877L2.40406 4.39606L2.58112 5.12569H2.95375L3.21148 4.45557L3.51369 5.12569H3.82492ZM7.77364 3.14606L7.57492 3.87569H7.26369L6.96148 3.20557L6.70375 3.87569H6.33112L6.15406 3.14606L6.66877 2.62569H6.43136L6.9624 2.25577L7.47623 2.62569H7.1853L7.77364 3.14606ZM4.97623 2.62569L4.4624 2.25577L3.93136 2.62569H4.16877L3.65406 3.14606L3.83112 3.87569H4.20375L4.46148 3.20557L4.76369 3.87569H5.07492L5.27364 3.14606L4.6853 2.62569H4.97623Z" fill="#F7FCFF"/>
</g>
</svg>
